X:1
T: The Diamond
C:
R:Jig
Q:180
K:Dm
M:6/8
L:1/16
|:FG|A2F2D2 D2E2F2|A4G2 A2B2c2|A2G2E2 c2E2E2|E2C2D2 E2F2G2|
A2F2D2 D2F2G2|A4G2 A2B2c2|G2F2E2 c2E2E2|E2D2D2 D4:|
|:A2|d4e2 f4d2|e4d2 d2c2A2|A2G2E2 c2E2E2|G2A2G2 G2A2B2|
d4e2 f4d2|e4d2 d2c2A2|G2F2E2 c2E2E2|E2D2D2 D4:|
